**harm	**harte	**timestamp	**phrase	**leadinstrument	**kern
*M4/4	*M4/4	*	*	*	*
*A:	*A:	*	*	*	*A:
1r;	N	0	.	r	1r;
=1	=1	=1	=1	=1	=1
*>A_intro	*>A_intro	*>A_intro	*>A_intro	*>A_intro	*>A_intro
1r	N	1.063	newline	synthesizer	1r
=2	=2	=2	=2	=2	=2
1r	N	3.456	.	synthesizer	1r
=3	=3	=3	=3	=3	=3
1r	N	5.849	.	synthesizer	1r
=4	=4	=4	=4	=4	=4
1-VII7	G:maj9	8.242	.	synthesizer	1G 1b 1dd 1ff#
=5	=5	=5	=5	=5	=5
*>B_instrumental	*>B_instrumental	*>B_instrumental	*>B_instrumental	*>B_instrumental	*>B_instrumental
1Ie	A:maj/2	10.635	newline	synthesizer	1A 1cc# 1ee
=6	=6	=6	=6	=6	=6
2v7	E:min7	13.03	.	synthesizer	2E 2g 2b 2dd
2v7e	E:min9/2	14.228	.	synthesizer	2E 2g 2b 2dd
=7	=7	=7	=7	=7	=7
1Ie	A:maj/2	15.425	.	synthesizer	1A 1cc# 1ee
=8	=8	=8	=8	=8	=8
1v7	E:min9	17.82	.	synthesizer	1E 1g 1b 1dd
=9	=9	=9	=9	=9	=9
1Ie	A:maj/2	20.216	newline	synthesizer	1A 1cc# 1ee
=10	=10	=10	=10	=10	=10
2v7	E:min7	22.598	.	synthesizer	2E 2g 2b 2dd
2v7e	E:min9/2	23.789	.	synthesizer	2E 2g 2b 2dd
=11	=11	=11	=11	=11	=11
1Ie	A:maj/2	24.98	.	synthesizer	1A 1cc# 1ee
=12	=12	=12	=12	=12	=12
1v7	E:min9	27.362	.	synthesizer	1E 1g 1b 1dd
=13	=13	=13	=13	=13	=13
*>C_verse	*>C_verse	*>C_verse	*>C_verse	*>C_verse	*>C_verse
1ii	B:1	29.745	newline	voice	1B 1dd 1ff#
=14	=14	=14	=14	=14	=14
2V	E:1	32.134	.	voice	2E 2g# 2b
2vi	F#:1	33.329	.	voice	2F# 2a 2cc#
=15	=15	=15	=15	=15	=15
1ii	B:1	34.523	.	voice	1B 1dd 1ff#
=16	=16	=16	=16	=16	=16
4-VII	G:1	36.912	.	voice	4G 4b 4dd
4vi	F#:1	37.51	.	voice	4F# 4a 4cc#
2V	E:1	38.107	.	voice	2E 2g# 2b
=17	=17	=17	=17	=17	=17
1v7	E:min9	39.302	newline	voice	1E 1g 1b 1dd
=18	=18	=18	=18	=18	=18
1Ie	A:maj/2	41.685	.	voice	1A 1cc# 1ee
=19	=19	=19	=19	=19	=19
1v7	E:min9	44.068	.	voice	1E 1g 1b 1dd
=20	=20	=20	=20	=20	=20
2I	A:(11,9)	46.452	.	voice	2A 2cc# 2ee
2-iio	B-:dim	47.644	.	voice	2B- 2dd- 2ff-
=21	=21	=21	=21	=21	=21
*>B_chorus	*>B_chorus	*>B_chorus	*>B_chorus	*>B_chorus	*>B_chorus
1Ie	A:maj/2	48.835	newline	voice	1A 1cc# 1ee
=22	=22	=22	=22	=22	=22
1v7	E:min9	51.234	.	voice	1E 1g 1b 1dd
=23	=23	=23	=23	=23	=23
1Ie	A:maj/2	53.633	.	voice	1A 1cc# 1ee
=24	=24	=24	=24	=24	=24
1v7	E:min9	56.032	.	voice	1E 1g 1b 1dd
=25	=25	=25	=25	=25	=25
1Ie	A:maj/2	58.431	newline	voice	1A 1cc# 1ee
=26	=26	=26	=26	=26	=26
1v7	E:min9	60.812	.	voice	1E 1g 1b 1dd
=27	=27	=27	=27	=27	=27
1Ie	A:maj/2	63.194	.	voice	1A 1cc# 1ee
=28	=28	=28	=28	=28	=28
1v7	E:min9	65.576	.	voice	1E 1g 1b 1dd
=29	=29	=29	=29	=29	=29
*>D_interlude	*>D_interlude	*>D_interlude	*>D_interlude	*>D_interlude	*>D_interlude
2ii	B:min	67.957	newline	synthesizer	2B 2dd 2ff#
2-II	B-:maj	69.148	.	synthesizer	2B- 2dd 2ff
=30	=30	=30	=30	=30	=30
2I	A:sus4	70.339	.	synthesizer	2A 2cc# 2ee
2I	A:maj	71.53	.	synthesizer	2A 2cc# 2ee
=31	=31	=31	=31	=31	=31
2ii	B:min	72.721	.	synthesizer	2B 2dd 2ff#
2Vc	E:(b5,b7,3)/b5	73.912	.	synthesizer	2e 2g# 2B
=32	=32	=32	=32	=32	=32
2-VII7e	G:maj7/2	75.103	.	synthesizer	2G 2b 2dd 2ff#
2I	A:maj	76.294	.	synthesizer	2A 2cc# 2ee
=33	=33	=33	=33	=33	=33
1ii	B:5(b7)	77.485	newline	synthesizer	1B 1dd 1ff#
=34	=34	=34	=34	=34	=34
2V	E:1	79.885	.	synthesizer	2E 2g# 2b
2vi	F#:1	81.086	.	synthesizer	2F# 2a 2cc#
=35	=35	=35	=35	=35	=35
1ii	B:5(b7)	82.286	.	synthesizer	1B 1dd 1ff#
=36	=36	=36	=36	=36	=36
4-VII	G:1	84.686	.	synthesizer	4G 4b 4dd
4vi	F#:1	85.286	.	synthesizer	4F# 4a 4cc#
2V	E:1	85.886	.	synthesizer	2E 2g# 2b
=37	=37	=37	=37	=37	=37
*>C_verse	*>C_verse	*>C_verse	*>C_verse	*>C_verse	*>C_verse
1ii	B:1	87.087	newline	voice	1B 1dd 1ff#
=38	=38	=38	=38	=38	=38
2V	E:1	89.475	.	voice	2E 2g# 2b
2vi	F#:1	90.669	.	voice	2F# 2a 2cc#
=39	=39	=39	=39	=39	=39
1ii	B:1	91.863	.	voice	1B 1dd 1ff#
=40	=40	=40	=40	=40	=40
4-VII	G:1	94.251	.	voice	4G 4b 4dd
4vi	F#:1	94.848	.	voice	4F# 4a 4cc#
2V	E:1	95.445	.	voice	2E 2g# 2b
=41	=41	=41	=41	=41	=41
1v7	E:min9	96.639	newline	voice	1E 1g 1b 1dd
=42	=42	=42	=42	=42	=42
1Ie	A:maj/2	99.014	.	voice	1A 1cc# 1ee
=43	=43	=43	=43	=43	=43
1v7	E:min9	101.389	.	voice	1E 1g 1b 1dd
=44	=44	=44	=44	=44	=44
2I	A:(11,9)	103.764	.	voice	2A 2cc# 2ee
2-iio	B-:dim	104.951	.	voice	2B- 2dd- 2ff-
=45	=45	=45	=45	=45	=45
*>B_chorus	*>B_chorus	*>B_chorus	*>B_chorus	*>B_chorus	*>B_chorus
1Ie	A:maj/2	106.138	newline	voice	1A 1cc# 1ee
=46	=46	=46	=46	=46	=46
1v7	E:min9	108.532	.	voice	1E 1g 1b 1dd
=47	=47	=47	=47	=47	=47
1Ie	A:maj/2	110.926	.	voice	1A 1cc# 1ee
=48	=48	=48	=48	=48	=48
1v7	E:min9	113.32	.	voice	1E 1g 1b 1dd
=49	=49	=49	=49	=49	=49
1Ie	A:maj/2	115.714	newline	voice	1A 1cc# 1ee
=50	=50	=50	=50	=50	=50
1v7	E:min9	118.107	.	voice	1E 1g 1b 1dd
=51	=51	=51	=51	=51	=51
1Ie	A:maj/2	120.501	.	voice	1A 1cc# 1ee
=52	=52	=52	=52	=52	=52
1v7	E:min9	122.895	.	voice	1E 1g 1b 1dd
=53	=53	=53	=53	=53	=53
*>B_instrumental	*>B_instrumental	*>B_instrumental	*>B_instrumental	*>B_instrumental	*>B_instrumental
1Ie	A:maj/2	125.289	newline	voice	1A 1cc# 1ee
=54	=54	=54	=54	=54	=54
1v7	E:min7	127.67	.	voice	1E 1g 1b 1dd
=55	=55	=55	=55	=55	=55
1Ie	A:maj/2	130.052	.	voice	1A 1cc# 1ee
=56	=56	=56	=56	=56	=56
1v7	E:min9	132.433	.	voice	1E 1g 1b 1dd
=57	=57	=57	=57	=57	=57
1Ie	A:maj/2	134.815	newline	voice	1A 1cc# 1ee
=58	=58	=58	=58	=58	=58
1v7	E:min7	137.197	.	voice	1E 1g 1b 1dd
=59	=59	=59	=59	=59	=59
1Ie	A:maj/2	139.58	.	voice	1A 1cc# 1ee
=60	=60	=60	=60	=60	=60
1v7	E:min9	141.962	.	voice	1E 1g 1b 1dd
=61	=61	=61	=61	=61	=61
*>E_solo	*>E_solo	*>E_solo	*>E_solo	*>E_solo	*>E_solo
1v7	E:min9	144.344	newline	voice	1E 1g 1b 1dd
=62	=62	=62	=62	=62	=62
1Ie	A:maj/2	146.734	.	voice	1A 1cc# 1ee
=63	=63	=63	=63	=63	=63
1v7	E:min9	149.123	.	voice	1E 1g 1b 1dd
=64	=64	=64	=64	=64	=64
1Ie	A:maj/2	151.513	.	voice	1A 1cc# 1ee
=65	=65	=65	=65	=65	=65
1v7	E:min9	153.902	newline	synthesizer	1E 1g 1b 1dd
=66	=66	=66	=66	=66	=66
1Ie	A:maj/2	156.291	.	synthesizer	1A 1cc# 1ee
=67	=67	=67	=67	=67	=67
1v7	E:min9	158.681	.	synthesizer	1E 1g 1b 1dd
=68	=68	=68	=68	=68	=68
2I	A:(11,9)	161.07	.	synthesizer	2A 2cc# 2ee
2-iio	B-:dim	162.265	.	synthesizer	2B- 2dd- 2ff-
=69	=69	=69	=69	=69	=69
*>B_chorus	*>B_chorus	*>B_chorus	*>B_chorus	*>B_chorus	*>B_chorus
1Ie	A:maj/2	163.459	newline	voice	1A 1cc# 1ee
=70	=70	=70	=70	=70	=70
1v7	E:min9	165.846	.	voice	1E 1g 1b 1dd
=71	=71	=71	=71	=71	=71
1Ie	A:maj/2	168.233	.	voice	1A 1cc# 1ee
=72	=72	=72	=72	=72	=72
1v7	E:min9	170.62	.	voice	1E 1g 1b 1dd
=73	=73	=73	=73	=73	=73
1Ie	A:maj/2	173.007	newline	voice	1A 1cc# 1ee
=74	=74	=74	=74	=74	=74
1v7	E:min9	175.4	.	voice	1E 1g 1b 1dd
=75	=75	=75	=75	=75	=75
1Ie	A:maj/2	177.793	.	voice	1A 1cc# 1ee
=76	=76	=76	=76	=76	=76
1v7	E:min9	180.186	.	voice	1E 1g 1b 1dd
=77	=77	=77	=77	=77	=77
*>B_chorus	*>B_chorus	*>B_chorus	*>B_chorus	*>B_chorus	*>B_chorus
1Ie	A:maj/2	182.579	newline	voice	1A 1cc# 1ee
=78	=78	=78	=78	=78	=78
1v7	E:min9	184.951	.	voice	1E 1g 1b 1dd
=79	=79	=79	=79	=79	=79
1Ie	A:maj/2	187.323	.	voice	1A 1cc# 1ee
=80	=80	=80	=80	=80	=80
1v7	E:min9	189.695	.	voice	1E 1g 1b 1dd
=81	=81	=81	=81	=81	=81
1Ie	A:maj/2	192.067	newline	voice	1A 1cc# 1ee
=82	=82	=82	=82	=82	=82
1v7	E:min9	194.468	.	voice	1E 1g 1b 1dd
=83	=83	=83	=83	=83	=83
1Ie	A:maj/2	196.869	.	voice	1A 1cc# 1ee
=84	=84	=84	=84	=84	=84
1v7	E:min9	199.269	.	voice	1E 1g 1b 1dd
=85	=85	=85	=85	=85	=85
*>B_interlude	*>B_interlude	*>B_interlude	*>B_interlude	*>B_interlude	*>B_interlude
1Ie	A:maj/2	201.67	newline	voice	1A 1cc# 1ee
=86	=86	=86	=86	=86	=86
1v7	E:min7	204.056	.	voice	1E 1g 1b 1dd
=87	=87	=87	=87	=87	=87
1Ie	A:maj/2	206.442	.	voice	1A 1cc# 1ee
=88	=88	=88	=88	=88	=88
1v7	E:min9	208.829	.	voice	1E 1g 1b 1dd
=89	=89	=89	=89	=89	=89
1Ie	A:maj/2	211.215	newline	voice	1A 1cc# 1ee
=90	=90	=90	=90	=90	=90
1v7	E:min7	213.605	.	voice	1E 1g 1b 1dd
=91	=91	=91	=91	=91	=91
1Ie	A:maj/2	215.995	.	voice	1A 1cc# 1ee
=92	=92	=92	=92	=92	=92
1v7	E:min9	218.385	.	voice	1E 1g 1b 1dd
=93	=93	=93	=93	=93	=93
*>B_chorus	*>B_chorus	*>B_chorus	*>B_chorus	*>B_chorus	*>B_chorus
1Ie	A:maj/2	220.775	newline	voice	1A 1cc# 1ee
=94	=94	=94	=94	=94	=94
1v7	E:min9	223.169	.	voice	1E 1g 1b 1dd
=95	=95	=95	=95	=95	=95
1Ie	A:maj/2	225.563	.	voice	1A 1cc# 1ee
=96	=96	=96	=96	=96	=96
1v7	E:min9	227.957	.	voice	1E 1g 1b 1dd
=97	=97	=97	=97	=97	=97
1Ie	A:maj/2	230.351	newline	voice	1A 1cc# 1ee
=98	=98	=98	=98	=98	=98
1v7	E:min9	232.73	.	voice	1E 1g 1b 1dd
=99	=99	=99	=99	=99	=99
1Ie	A:maj/2	235.11	.	voice	1A 1cc# 1ee
=100	=100	=100	=100	=100	=100
1v7	E:min9	237.489	.	voice	1E 1g 1b 1dd
=101	=101	=101	=101	=101	=101
*>_fadeout	*>_fadeout	*>_fadeout	*>_fadeout	*>_fadeout	*>_fadeout
1Ie	A:maj/2	239.868	newline	synthesizer	1A 1cc# 1ee
=102	=102	=102	=102	=102	=102
1v7	E:min7	241.775	.	synthesizer	1E 1g 1b 1dd
=103	=103	=103	=103	=103	=103
1Ie	A:maj/2	243.683	.	synthesizer	1A 1cc# 1ee
=104	=104	=104	=104	=104	=104
1v7	E:min9	245.59	.	synthesizer	1E 1g 1b 1dd
=105	=105	=105	=105	=105	=105
1Ie	A:maj/2	247.498	.	synthesizer	1A 1cc# 1ee
=106	=106	=106	=106	=106	=106
1Ie	A:maj/2	249.406	newline	synthesizer	1A 1cc# 1ee
=107	=107	=107	=107	=107	=107
1v7	E:min7	251.435	.	synthesizer	1E 1g 1b 1dd
=108	=108	=108	=108	=108	=108
1Ie	A:maj/2	253.464	.	synthesizer	1A 1cc# 1ee
=109	=109	=109	=109	=109	=109
1v7	E:min9	255.494	.	synthesizer	1E 1g 1b 1dd
=110	=110	=110	=110	=110	=110
1Ie	A:maj/2	257.523	.	synthesizer	1A 1cc# 1ee
1r;	N	259.553	.	r	1r;
1r;	N	265.456	.	r	1r;
*-	*-	*-	*-	*-	*-
!!!OTL: Dial My Heart
!!!COC: The Boys
!!!BillboardChartDate: 1988/12/24
!!!BillboardPeak: 13
!!!BillboardWeeksOnChart: 19
!!!SampleTargetRank: 46
!!!SampleActualRank: 46
!!!SampleID#: 0078
!!!RDF**harmony: **recip + pitch class of root + harmonic quality
!!!RDF**harte: Chris Harte's syntax, used by MIREX
!!!RDF**phrase: newline = linebreak in original McGill transcription
!!!RDF**timestamp: McGill audio timestamp in seconds
!!!RDF**leadinstrument: original McGill primary instrumentation annotation
!!!RDT: 2017/01/12/
!!!ENC: Nathaniel Condit-Schultz
!!!EST: Awating manual error checking and editing.
